tipitek/img/coinlist_icon-5.svg

<svg width="21" height="20" viewBox="0 0 21 20" fill="none" xmlns="http://www.w3.org/2000/svg">
<path d="M14.2476 12.0229C14.2476 9.99982 13.0337 9.30618 10.606 9.0172C8.87186 8.78594 8.52504 8.32356 8.52504 7.51421C8.52504 6.70487 9.10312 6.18478 10.2591 6.18478C11.2996 6.18478 11.8777 6.5316 12.1667 7.39865C12.2245 7.57206 12.3979 7.68763 12.5713 7.68763H13.4961C13.7274 7.68763 13.9008 7.51421 13.9008 7.28309V7.22524C13.6695 5.95351 12.6291 4.9709 11.2996 4.85534V3.46805C11.2996 3.23678 11.1262 3.06337 10.8372 3.00552H9.97018C9.73892 3.00552 9.56551 3.17893 9.50766 3.46805V4.79749C7.77354 5.02875 6.67536 6.18478 6.67536 7.62991C6.67536 9.53744 7.83139 10.2888 10.2591 10.5779C11.8777 10.8669 12.3979 11.2137 12.3979 12.1386C12.3979 13.0635 11.5886 13.6993 10.4904 13.6993C8.98742 13.6993 8.46719 13.0634 8.29378 12.1963C8.23607 11.9652 8.06265 11.8495 7.88924 11.8495H6.90649C6.67536 11.8495 6.50195 12.0229 6.50195 12.2542V12.312C6.73308 13.757 7.65798 14.7975 9.56551 15.0866V16.4739C9.56551 16.705 9.73892 16.8784 10.0279 16.9363H10.8949C11.1262 16.9363 11.2996 16.7629 11.3575 16.4739V15.0866C13.0916 14.7975 14.2476 13.5836 14.2476 12.0229Z" fill="#5482C7"/>
<path d="M7.4849 18.0925C2.97621 16.4741 0.664018 11.4451 2.34042 6.99416C3.20747 4.5664 5.115 2.71673 7.4849 1.84967C7.71617 1.73411 7.83173 1.5607 7.83173 1.27159V0.462383C7.83173 0.231122 7.71617 0.0577113 7.4849 0C7.42705 0 7.31149 -3.70446e-07 7.25364 0.0577109C1.76234 1.79182 -1.24351 7.63009 0.490606 13.1214C1.53107 16.3584 4.01668 18.844 7.25364 19.8844C7.48491 20 7.71617 19.8844 7.77388 19.6532C7.83173 19.5955 7.83173 19.5376 7.83173 19.4221V18.6127C7.83173 18.4393 7.65832 18.2082 7.4849 18.0925ZM13.6121 0.0577109C13.3809 -0.0578504 13.1496 0.0577111 13.0919 0.288972C13.0341 0.346822 13.0341 0.404534 13.0341 0.520234V1.32944C13.0341 1.5607 13.2075 1.79182 13.3809 1.90752C17.8896 3.52594 20.2018 8.55486 18.5254 13.0058C17.6583 15.4336 15.7508 17.2833 13.3809 18.1503C13.1496 18.2659 13.0341 18.4393 13.0341 18.7284V19.5376C13.0341 19.7689 13.1496 19.9423 13.3809 20C13.4387 20 13.5543 20 13.6121 19.9423C19.1035 18.2082 22.1093 12.3699 20.3752 6.8786C19.3347 3.58379 16.7913 1.09818 13.6121 0.0577109Z" fill="#5482C7"/>
</svg>

<svg width="21" height="20" fill="none" xmlns="http://www.w3.org/2000/svg"><path d="M14.248 12.023c0-2.023-1.214-2.717-3.642-3.006-1.734-.231-2.081-.693-2.081-1.503 0-.81.578-1.33 1.734-1.33 1.04 0 1.619.348 1.908 1.215a.435.435 0 0 0 .404.289h.925a.395.395 0 0 0 .405-.405v-.058a2.888 2.888 0 0 0-2.601-2.37V3.468c0-.231-.174-.405-.463-.462H9.97c-.231 0-.404.173-.462.462v1.33c-1.734.23-2.833 1.387-2.833 2.832 0 1.907 1.156 2.659 3.584 2.948 1.619.289 2.139.636 2.139 1.56 0 .925-.81 1.561-1.908 1.561-1.503 0-2.023-.636-2.196-1.503-.058-.23-.231-.346-.405-.346h-.983a.395.395 0 0 0-.404.404v.058c.231 1.445 1.156 2.486 3.064 2.775v1.387c0 .231.173.404.462.462h.867c.231 0 .405-.173.463-.462v-1.387c1.734-.29 2.89-1.503 2.89-3.064z" fill="#5482C7"/><path d="M7.485 18.093C2.976 16.474.664 11.445 2.34 6.994c.867-2.428 2.775-4.277 5.145-5.144.231-.116.347-.29.347-.578v-.81c0-.23-.116-.404-.347-.462-.058 0-.174 0-.231.058C1.762 1.792-1.244 7.63.49 13.12a10.398 10.398 0 0 0 6.763 6.763c.23.116.462 0 .52-.23.058-.058.058-.116.058-.232v-.81c0-.173-.174-.404-.347-.52zM13.612.058c-.231-.116-.462 0-.52.231-.058.058-.058.116-.058.231v.81c0 .23.173.462.347.578 4.509 1.618 6.82 6.647 5.144 11.098-.867 2.428-2.774 4.277-5.144 5.144-.231.116-.347.29-.347.578v.81c0 .23.116.404.347.462.058 0 .173 0 .231-.058 5.492-1.734 8.497-7.572 6.763-13.063A10.484 10.484 0 0 0 13.612.058z" fill="#5482C7"/></svg>
